X: 3228
T: Beggarman, The
R: jig
M: 6/8
K: Dmixolydian
|:f2d g2e|f2d edB|ABd e2e|efd efg|
f2d g2e|f2d edB|ABd e2d|e2d d3:|
|:c'2b c'ba|b2g agf|gaf gfe|f2d c2B|
A3 d2A|f2A edc|BcA GAB|1 ADD D3:|2 Add d3||

